public/assets/heatEq2.svg

<svg width="81" height="105" viewBox="0 0 81 105" fill="none" xmlns="http://www.w3.org/2000/svg">
<path d="M80.3171 104.775H0.681904C0.299764 104.775 -0.000488281 104.474 -0.000488281 104.092V0.682393C-0.000488281 0.300253 0.299764 0 0.681904 0H80.3171C80.6993 0 80.9995 0.300253 80.9995 0.682393V104.092C80.9995 104.461 80.6993 104.775 80.3171 104.775Z" fill="url(#paint0_linear_175_638)"/>
<path d="M64.691 100.393H16.323C15.5724 100.393 14.9446 99.8066 14.9036 99.056L9.84027 5.81386C9.79933 5.03593 10.4271 4.36719 11.2051 4.36719H69.809C70.6005 4.36719 71.2147 5.02228 71.1737 5.81386L66.0967 99.056C66.0558 99.8066 65.4416 100.393 64.691 100.393Z" fill="#FEF7EC" stroke="#062023" stroke-width="3" stroke-miterlimit="10" stroke-linecap="round" stroke-linejoin="round"/>
<path d="M56.2016 95.1525H24.7979C23.2967 95.1525 22.0684 93.9242 22.0684 92.4229V78.5567C22.0684 77.0555 23.2967 75.8271 24.7979 75.8271H56.2016C57.7029 75.8271 58.9312 77.0555 58.9312 78.5567V92.4229C58.9312 93.9242 57.7029 95.1525 56.2016 95.1525Z" fill="url(#paint1_linear_175_638)"/>
<path d="M52.516 87.7557C53.7672 87.7557 54.7816 86.7414 54.7816 85.4902C54.7816 84.2389 53.7672 83.2246 52.516 83.2246C51.2648 83.2246 50.2505 84.2389 50.2505 85.4902C50.2505 86.7414 51.2648 87.7557 52.516 87.7557Z" fill="#FEF7EC"/>
<path d="M28.4828 87.7567C29.7341 87.7567 30.7484 86.7424 30.7484 85.4911C30.7484 84.2399 29.7341 83.2256 28.4828 83.2256C27.2316 83.2256 26.2173 84.2399 26.2173 85.4911C26.2173 86.7424 27.2316 87.7567 28.4828 87.7567Z" fill="#FEF7EC"/>
<path d="M47.9581 80.6318H33.0547V90.3491H47.9581V80.6318Z" fill="#062023"/>
<defs>
<linearGradient id="paint0_linear_175_638" x1="-5.74215" y1="6.1414" x2="86.7468" y2="98.6303" gradientUnits="userSpaceOnUse">
<stop offset="0.00249518" stop-color="#28C985"/>
<stop offset="1" stop-color="#18808A"/>
</linearGradient>
<linearGradient id="paint1_linear_175_638" x1="27.2575" y1="72.24" x2="53.7477" y2="98.7303" gradientUnits="userSpaceOnUse">
<stop offset="0.00249518" stop-color="#28C985"/>
<stop offset="1" stop-color="#18808A"/>
</linearGradient>
</defs>
</svg>

<svg width="81" height="105" fill="none" xmlns="http://www.w3.org/2000/svg"><path d="M80.317 104.775H.682a.676.676 0 0 1-.682-.683V.682C0 .3.3 0 .682 0h79.635C80.7 0 81 .3 81 .682v103.41c0 .369-.3.683-.683.683z" fill="url(#a)"/><path d="M64.691 100.393H16.323a1.42 1.42 0 0 1-1.42-1.337L9.84 5.814a1.38 1.38 0 0 1 1.365-1.447H69.81c.791 0 1.406.655 1.365 1.447l-5.077 93.242a1.408 1.408 0 0 1-1.406 1.337z" fill="#FEF7EC" stroke="#062023" stroke-width="3" stroke-miterlimit="10" stroke-linecap="round" stroke-linejoin="round"/><path d="M56.202 95.153H24.798a2.738 2.738 0 0 1-2.73-2.73V78.557a2.738 2.738 0 0 1 2.73-2.73h31.404a2.738 2.738 0 0 1 2.73 2.73v13.866a2.738 2.738 0 0 1-2.73 2.73z" fill="url(#b)"/><path d="M52.516 87.756a2.266 2.266 0 1 0 0-4.531 2.266 2.266 0 0 0 0 4.53zM28.483 87.757a2.266 2.266 0 1 0 0-4.531 2.266 2.266 0 0 0 0 4.53z" fill="#FEF7EC"/><path d="M47.958 80.632H33.055v9.717h14.903v-9.717z" fill="#062023"/><defs><linearGradient id="a" x1="-5.742" y1="6.141" x2="86.747" y2="98.63" gradientUnits="userSpaceOnUse"><stop offset=".002" stop-color="#28C985"/><stop offset="1" stop-color="#18808A"/></linearGradient><linearGradient id="b" x1="27.258" y1="72.24" x2="53.748" y2="98.73" gradientUnits="userSpaceOnUse"><stop offset=".002" stop-color="#28C985"/><stop offset="1" stop-color="#18808A"/></linearGradient></defs></svg>
